source/presentation/public/images/icons/types/psychic.svg

<svg width="1em" height="1em" viewBox="0 0 35 35" xmlns="http://www.w3.org/2000/svg">
<circle cx="17.5" cy="17.5" r="17.5" fill="#9F4EA4"/>
<path d="m30.5 17.888c0.0948 4.7184-5.9562 9.8136-13.65 10.05-5.7-0.3-12.159-4.917-13.65-10.05 2.3706-5.9846 8.8708-10.555 13.65-10.05 5.6693-0.32508 11.943 4.2027 13.65 10.05zm-2.7005 0.0139c0.0558 3.4123-4.7065 6.6306-10.65 7.3361-4.5459-0.3499-9.4864-3.5892-10.65-7.3361 1.7774-4.1981 6.5303-7.4431 10.208-7.3624-3.6622 0.0757-6.6076 3.0681-6.6076 6.7485 0 3.7279 3.0221 6.75 6.75 6.75s6.75-3.0221 6.75-6.75c0-3.5554-2.7488-6.4688-6.2371-6.7308 4.3661-0.1224 9.126 3.1449 10.437 7.3447zm-12.9-0.1639c1.1598 0 2.1-0.9402 2.1-2.1 0-0.6924-0.335-1.3065-0.8518-1.689 0.2717-0.0724 0.5573-0.111 0.8518-0.111 1.8226 0 3.3 1.4774 3.3 3.3 0 1.8225-1.4774 3.3-3.3 3.3-1.7456 0-3.1746-1.3553-3.2922-3.071 0.3387 0.234 0.7495 0.371 1.1922 0.371z" clip-rule="evenodd" fill-rule="evenodd"/>
</svg>

<svg width="1em" height="1em" viewBox="0 0 35 35" fill="none" xmlns="http://www.w3.org/2000/svg">
<circle cx="17.5" cy="17.5" r="17.5" fill="#9F4EA4"/>
<path fill-rule="evenodd" clip-rule="evenodd" d="M30.5 17.8882C30.5948 22.6066 24.5438 27.7018 16.85 27.9382C11.15 27.6382 4.69111 23.0212 3.20001 17.8882C5.57066 11.9036 12.0708 7.33285 16.85 7.83818C22.5193 7.5131 28.7928 12.0409 30.5 17.8882ZM27.7995 17.9021C27.8553 21.3144 23.093 24.5327 17.1498 25.2382C12.6039 24.8883 7.66337 21.649 6.50001 17.9021C8.27745 13.704 13.0303 10.459 16.7076 10.5397C13.0454 10.6154 10.1 13.6078 10.1 17.2882C10.1 21.0161 13.1221 24.0382 16.85 24.0382C20.5779 24.0382 23.6 21.0161 23.6 17.2882C23.6 13.7328 20.8512 10.8194 17.3629 10.5574C21.729 10.435 26.4889 13.7023 27.7995 17.9021ZM14.9 17.7382C16.0598 17.7382 17 16.798 17 15.6382C17 14.9458 16.665 14.3317 16.1482 13.9492C16.4199 13.8768 16.7055 13.8382 17 13.8382C18.8226 13.8382 20.3 15.3156 20.3 17.1382C20.3 18.9607 18.8226 20.4382 17 20.4382C15.2544 20.4382 13.8254 19.0829 13.7078 17.3672C14.0465 17.6012 14.4573 17.7382 14.9 17.7382Z" fill="black"/>
</svg>
